X:1
T:James Gibb editions
T:No se puede llamar - Encina
%%score [ 1 2 3 ]
L:1/8
Q:1/4=160
M:3/2
K:C
V:1 treble nm="Soprano" snm="S"
V:2 treble-8 nm="Tenor" snm="T"
V:3 bass nm="Bass" snm="B"
V:1
"^Juan del Encina\n(1468-1529)" A8 (G2 F2) |"^No se puede llamar" F4 E8 | C4 D8 | !fermata!C12 | %4
w: No se *|pue- de|lla- mar|fé|
w: Vos sois *|la que|me ma-|tais|
 c8 B4 | d4 (c6 B2) | A8 ^G4 | !fermata!A12!fine! || c8 B4 | d4 (c6 B2) | A8 ^G4 | !fermata!A12 | %12
w: la que~~en|o- bras *|no lo|fué|Aun- que|mu- cho *|me que-|rais|
w: yo de|vos me *|que- ja-|ré|pues que|no me *|re- me-|diais|
 c8 B4 | d4 (c6 B2) | A8 ^G4 | !fermata!A12!D.C.! |] %16
w: Aun- que|mu- cho *|me que-|rais.|
w: pues que|no me *|re- me-|diais.|
V:2
 A8 B4 | d4 (G4 A2 B2) | c8 B4 | !fermata!c12 | e8 d4 | B4 (e6 d2) | c4 B8 | !fermata!A12 || %8
w: No se|pue- de * *|lla- mar|fé|la que~~en|o- bras *|no lo|fué|
w: Vos sois|la que * *|me ma-|tais|yo de|vos me *|que- ja-|ré|
 e8 d4 | B4 (e6 d2) | c4 B8 | !fermata!A12 | e8 d4 | B4 (e6 d2) | c4 B8 | !fermata!A12 |] %16
w: Aun- que|mu- cho *|me que-|rais|Aun- que|mu- cho *|me que-|rais.|
w: pues que|no me *|re- me-|diais|pues que|no me *|re- me-|diais.|
V:3
 A,8 E,4 | D,4 C,8 | C,4 G,8 | !fermata!C,12 | C,8 G,4 | G,4 (A,6 G,2) | A,4 E,8 | %7
w: No se|pue- de|lla- mar|fé|la que~~en|o- bras *|no lo|
w: Vos sois|la que|me ma-|tais|yo de|vos me *|que- ja-|
 !fermata!A,,12 || C,8 G,4 | G,4 (A,6 G,2) | A,4 E,8 | !fermata!A,,12 | C,8 G,4 | G,4 (A,6 G,2) | %14
w: fué|Aun- que|mu- cho *|me que-|rais|Aun- que|mu- cho *|
w: ré|pues que|no me *|re- me-|diais|pues que|no me *|
 A,4 E,8 | !fermata!A,,12 |] %16
w: me que-|rais.|
w: re- me-|diais.|

